static/img/kroki/32f16eb8829e5b0f27805406722e514a.svg

<?xml version="1.0" encoding="us-ascii" standalone="no"?><svg xmlns="http://www.w3.org/2000/svg" xmlns:xlink="http://www.w3.org/1999/xlink" contentStyleType="text/css" height="919px" preserveAspectRatio="none" style="width:241px;height:919px;" version="1.1" viewBox="0 0 241 919" width="241px" zoomAndPan="magnify"><defs/><g><!--class onprem_region--><g id="elem_onprem_region"><rect codeLine="23" fill="#3D176E" height="39.7891" id="onprem_region" rx="2.5" ry="2.5" style="stroke:#000D19;stroke-width:0.5;" width="169" x="36" y="873.52"/><ellipse cx="51" cy="893.4145" fill="#ADD1B2" rx="11" ry="11" style="stroke:#181818;stroke-width:1.0;"/><path d="M53.9688,899.0552 Q53.3906,899.352 52.75,899.4927 Q52.1094,899.6489 51.4063,899.6489 Q48.9063,899.6489 47.5781,898.0083 Q46.2656,896.352 46.2656,893.227 Q46.2656,890.102 47.5781,888.4458 Q48.9063,886.7895 51.4063,886.7895 Q52.1094,886.7895 52.75,886.9458 Q53.4063,887.102 53.9688,887.3989 L53.9688,890.1177 Q53.3438,889.5395 52.75,889.2739 Q52.1563,888.9927 51.5313,888.9927 Q50.1875,888.9927 49.5,890.0708 Q48.8125,891.1333 48.8125,893.227 Q48.8125,895.3208 49.5,896.3989 Q50.1875,897.4614 51.5313,897.4614 Q52.1563,897.4614 52.75,897.1958 Q53.3438,896.9145 53.9688,896.3364 L53.9688,899.0552 Z " fill="#000000"/><text fill="#D9B8FF" font-family="Helvetica" font-size="17" lengthAdjust="spacing" textLength="127" x="70" y="899.2998">onprem_region</text></g><!--class phantom_resource--><g id="elem_phantom_resource"><rect codeLine="26" fill="#3D176E" height="39.7891" id="phantom_resource" rx="2.5" ry="2.5" style="stroke:#000D19;stroke-width:0.5;" width="198" x="21.5" y="438.76"/><ellipse cx="36.5" cy="458.6545" fill="#ADD1B2" rx="11" ry="11" style="stroke:#181818;stroke-width:1.0;"/><path d="M39.4688,464.2952 Q38.8906,464.592 38.25,464.7327 Q37.6094,464.8889 36.9063,464.8889 Q34.4063,464.8889 33.0781,463.2483 Q31.7656,461.592 31.7656,458.467 Q31.7656,455.342 33.0781,453.6858 Q34.4063,452.0295 36.9063,452.0295 Q37.6094,452.0295 38.25,452.1858 Q38.9063,452.342 39.4688,452.6389 L39.4688,455.3577 Q38.8438,454.7795 38.25,454.5139 Q37.6563,454.2327 37.0313,454.2327 Q35.6875,454.2327 35,455.3108 Q34.3125,456.3733 34.3125,458.467 Q34.3125,460.5608 35,461.6389 Q35.6875,462.7014 37.0313,462.7014 Q37.6563,462.7014 38.25,462.4358 Q38.8438,462.1545 39.4688,461.5764 L39.4688,464.2952 Z " fill="#000000"/><text fill="#D9B8FF" font-family="Helvetica" font-size="17" lengthAdjust="spacing" textLength="156" x="55.5" y="464.5398">phantom_resource</text></g><!--class region--><g id="elem_region"><rect codeLine="29" fill="#3D176E" height="152.9766" id="region" rx="2.5" ry="2.5" style="stroke:#000D19;stroke-width:0.5;" width="195" x="23" y="599.54"/><ellipse cx="84.75" cy="619.4345" fill="#ADD1B2" rx="11" ry="11" style="stroke:#181818;stroke-width:1.0;"/><path d="M87.7188,625.0752 Q87.1406,625.372 86.5,625.5127 Q85.8594,625.6689 85.1563,625.6689 Q82.6563,625.6689 81.3281,624.0283 Q80.0156,622.372 80.0156,619.247 Q80.0156,616.122 81.3281,614.4658 Q82.6563,612.8095 85.1563,612.8095 Q85.8594,612.8095 86.5,612.9658 Q87.1563,613.122 87.7188,613.4189 L87.7188,616.1377 Q87.0938,615.5595 86.5,615.2939 Q85.9063,615.0127 85.2813,615.0127 Q83.9375,615.0127 83.25,616.0908 Q82.5625,617.1533 82.5625,619.247 Q82.5625,621.3408 83.25,622.4189 Q83.9375,623.4814 85.2813,623.4814 Q85.9063,623.4814 86.5,623.2158 Q87.0938,622.9345 87.7188,622.3564 L87.7188,625.0752 Z " fill="#000000"/><text fill="#D9B8FF" font-family="Helvetica" font-size="17" lengthAdjust="spacing" textLength="53" x="110.25" y="625.3198">region</text><line style="stroke:#000D19;stroke-width:0.5;" x1="24" x2="217" y1="639.3291" y2="639.3291"/><text fill="#D9B8FF" font-family="sans-serif" font-size="14" font-weight="bold" lengthAdjust="spacing" textLength="59" x="34" y="661.3242">latitude</text><text fill="#D9B8FF" font-family="sans-serif" font-size="14" lengthAdjust="spacing" textLength="57" x="93" y="661.3242">: double</text><text fill="#D9B8FF" font-family="sans-serif" font-size="14" font-weight="bold" lengthAdjust="spacing" textLength="84" x="34" y="687.6211">long_name</text><text fill="#D9B8FF" font-family="sans-serif" font-size="14" lengthAdjust="spacing" textLength="48" x="118" y="687.6211">: string</text><text fill="#D9B8FF" font-family="sans-serif" font-size="14" font-weight="bold" lengthAdjust="spacing" textLength="74" x="34" y="713.9179">longitude</text><text fill="#D9B8FF" font-family="sans-serif" font-size="14" lengthAdjust="spacing" textLength="57" x="108" y="713.9179">: double</text><text fill="#D9B8FF" font-family="sans-serif" font-size="14" font-weight="bold" lengthAdjust="spacing" textLength="108" x="34" y="740.2148">region_in_use</text><text fill="#D9B8FF" font-family="sans-serif" font-size="14" lengthAdjust="spacing" textLength="65" x="142" y="740.2148">: boolean</text></g><!--class resource--><g id="elem_resource"><rect codeLine="35" fill="#3D176E" height="310.7578" id="resource" rx="2.5" ry="2.5" style="stroke:#000D19;stroke-width:0.5;" width="227" x="7" y="7"/><ellipse cx="75.75" cy="26.8945" fill="#ADD1B2" rx="11" ry="11" style="stroke:#181818;stroke-width:1.0;"/><path d="M78.7188,32.5352 Q78.1406,32.832 77.5,32.9727 Q76.8594,33.1289 76.1563,33.1289 Q73.6563,33.1289 72.3281,31.4883 Q71.0156,29.832 71.0156,26.707 Q71.0156,23.582 72.3281,21.9258 Q73.6563,20.2695 76.1563,20.2695 Q76.8594,20.2695 77.5,20.4258 Q78.1563,20.582 78.7188,20.8789 L78.7188,23.5977 Q78.0938,23.0195 77.5,22.7539 Q76.9063,22.4727 76.2813,22.4727 Q74.9375,22.4727 74.25,23.5508 Q73.5625,24.6133 73.5625,26.707 Q73.5625,28.8008 74.25,29.8789 Q74.9375,30.9414 76.2813,30.9414 Q76.9063,30.9414 77.5,30.6758 Q78.0938,30.3945 78.7188,29.8164 L78.7188,32.5352 Z " fill="#000000"/><text fill="#D9B8FF" font-family="Helvetica" font-size="17" lengthAdjust="spacing" textLength="71" x="101.25" y="32.7798">resource</text><line style="stroke:#000D19;stroke-width:0.5;" x1="8" x2="233" y1="46.7891" y2="46.7891"/><text fill="#D9B8FF" font-family="sans-serif" font-size="14" font-weight="bold" lengthAdjust="spacing" textLength="29" x="18" y="68.7842">age</text><text fill="#D9B8FF" font-family="sans-serif" font-size="14" lengthAdjust="spacing" textLength="66" x="47" y="68.7842">: duration</text><text fill="#D9B8FF" font-family="sans-serif" font-size="14" font-weight="bold" lengthAdjust="spacing" textLength="43" x="18" y="95.0811">atime</text><text fill="#D9B8FF" font-family="sans-serif" font-size="14" lengthAdjust="spacing" textLength="70" x="61" y="95.0811">: datetime</text><text fill="#D9B8FF" font-family="sans-serif" font-size="14" font-weight="bold" lengthAdjust="spacing" textLength="43" x="18" y="121.3779">ctime</text><text fill="#D9B8FF" font-family="sans-serif" font-size="14" lengthAdjust="spacing" textLength="70" x="61" y="121.3779">: datetime</text><text fill="#D9B8FF" font-family="sans-serif" font-size="14" font-weight="bold" lengthAdjust="spacing" textLength="14" x="18" y="147.6748">id</text><text fill="#D9B8FF" font-family="sans-serif" font-size="14" lengthAdjust="spacing" textLength="48" x="32" y="147.6748">: string</text><text fill="#D9B8FF" font-family="sans-serif" font-size="14" font-weight="bold" lengthAdjust="spacing" textLength="33" x="18" y="173.9717">kind</text><text fill="#D9B8FF" font-family="sans-serif" font-size="14" lengthAdjust="spacing" textLength="48" x="51" y="173.9717">: string</text><text fill="#D9B8FF" font-family="sans-serif" font-size="14" font-weight="bold" lengthAdjust="spacing" textLength="90" x="18" y="200.2686">last_access</text><text fill="#D9B8FF" font-family="sans-serif" font-size="14" lengthAdjust="spacing" textLength="66" x="108" y="200.2686">: duration</text><text fill="#D9B8FF" font-family="sans-serif" font-size="14" font-weight="bold" lengthAdjust="spacing" textLength="90" x="18" y="226.5654">last_update</text><text fill="#D9B8FF" font-family="sans-serif" font-size="14" lengthAdjust="spacing" textLength="66" x="108" y="226.5654">: duration</text><text fill="#D9B8FF" font-family="sans-serif" font-size="14" font-weight="bold" lengthAdjust="spacing" textLength="48" x="18" y="252.8623">mtime</text><text fill="#D9B8FF" font-family="sans-serif" font-size="14" lengthAdjust="spacing" textLength="70" x="66" y="252.8623">: datetime</text><text fill="#D9B8FF" font-family="sans-serif" font-size="14" font-weight="bold" lengthAdjust="spacing" textLength="43" x="18" y="279.1592">name</text><text fill="#D9B8FF" font-family="sans-serif" font-size="14" lengthAdjust="spacing" textLength="48" x="61" y="279.1592">: string</text><text fill="#D9B8FF" font-family="sans-serif" font-size="14" font-weight="bold" lengthAdjust="spacing" textLength="34" x="18" y="305.4561">tags</text><text fill="#D9B8FF" font-family="sans-serif" font-size="14" lengthAdjust="spacing" textLength="171" x="52" y="305.4561">: dictionary[string, string]</text></g><!--reverse link region to onprem_region--><g id="link_region_onprem_region"><path codeLine="47" d="M120.5,770.97 C120.5,813.84 120.5,846.09 120.5,873.02 " fill="none" id="region-backto-onprem_region" style="stroke:#FFAF37;stroke-width:2.0;"/><polygon fill="none" points="120.5,752.97,114.5,770.97,126.5,770.97,120.5,752.97" style="stroke:#FFAF37;stroke-width:2.0;"/></g><!--reverse link resource to phantom_resource--><g id="link_resource_phantom_resource"><path codeLine="48" d="M120.5,335.84 C120.5,384.13 120.5,413.36 120.5,438.67 " fill="none" id="resource-backto-phantom_resource" style="stroke:#FFAF37;stroke-width:2.0;"/><polygon fill="none" points="120.5,317.84,114.5,335.84,126.5,335.84,120.5,317.84" style="stroke:#FFAF37;stroke-width:2.0;"/></g><!--reverse link phantom_resource to region--><g id="link_phantom_resource_region"><path codeLine="49" d="M120.5,496.76 C120.5,523.63 120.5,556.11 120.5,599.15 " fill="none" id="phantom_resource-backto-region" style="stroke:#FFAF37;stroke-width:2.0;"/><polygon fill="none" points="120.5,478.76,114.5,496.76,126.5,496.76,120.5,478.76" style="stroke:#FFAF37;stroke-width:2.0;"/></g><!--SRC=[XPDFRzim3CNl_XG2UZCM86cnfHbswG8KswKOrjs6mQ0bsX5YYmP5hyZ-VFT9aHSuTjhUZFT-uYCfUMSDAcmxEQWMsnBPPtvlNGSChRfZfgSjDSJggggWkbbFpNjoyYhm02sgJzZyHB4QfiItdTLxXzwhwv7r4VI-PkgTIUM5mVbWePCHjMt0-piHjcKlE6h6RChRgfgIqw9NDsQrVeSpZDWW3yXokJIhpHHvDUh5kK_4e_s5QZLUsWC9pjgSHHof5xkCnAZ9sQ3__MTx_0B6M5UhjoFjQ-g97VAP_hW3Gq-Hhg3nunWlo4Xow70xcmetjwPQNuG_FmTdEgvEaUiOsuAnjkJKxopxEnZT3fnGT3prh77idUWyRq2iz0Rp_Bqor9SDHf5SNRYmZwZwyAPSFQXpDjKgh2jwVtHAeWR1ZS9E3UGvrEbqpo6NN5J4fXm3Wl4xQFg2PirPCs5LvqB8aWAq3h_F9E7ez5siDN7Q2pcpiGNgLD7gU0puy3rvRmRcHnXrsEY7Ful5ulnEijFyoPpUIpQxgCGDf_y1]--></g></svg>

<svg xmlns="http://www.w3.org/2000/svg" width="241" height="919" viewBox="0 0 241 919"><rect width="169" height="39.789" x="36" y="873.52" fill="#3D176E" rx="2.5" ry="2.5" style="stroke:#000d19;stroke-width:.5"/><circle cx="51" cy="893.414" r="11" fill="#ADD1B2" style="stroke:#181818;stroke-width:1"/><path d="M53.969 899.055q-.578.297-1.219.438-.64.156-1.344.156-2.5 0-3.828-1.64-1.312-1.657-1.312-4.782t1.312-4.781q1.328-1.657 3.828-1.657.703 0 1.344.157.656.156 1.219.453v2.719q-.625-.579-1.219-.844-.594-.281-1.219-.281-1.343 0-2.031 1.078-.687 1.062-.687 3.156t.687 3.172q.688 1.062 2.031 1.062.625 0 1.219-.265.594-.282 1.219-.86z"/><text x="70" y="899.3" fill="#D9B8FF" font-family="Helvetica" font-size="17" textLength="127">onprem_region</text><rect width="198" height="39.789" x="21.5" y="438.76" fill="#3D176E" rx="2.5" ry="2.5" style="stroke:#000d19;stroke-width:.5"/><circle cx="36.5" cy="458.654" r="11" fill="#ADD1B2" style="stroke:#181818;stroke-width:1"/><path d="M39.469 464.295q-.578.297-1.219.438-.64.156-1.344.156-2.5 0-3.828-1.64-1.312-1.657-1.312-4.782t1.312-4.781q1.328-1.656 3.828-1.656.703 0 1.344.156.656.156 1.219.453v2.719q-.625-.579-1.219-.844-.594-.281-1.219-.281-1.343 0-2.031 1.078-.687 1.062-.687 3.156t.687 3.172q.688 1.062 2.031 1.062.625 0 1.219-.265.594-.281 1.219-.86z"/><text x="55.5" y="464.54" fill="#D9B8FF" font-family="Helvetica" font-size="17" textLength="156">phantom_resource</text><rect width="195" height="152.977" x="23" y="599.54" fill="#3D176E" rx="2.5" ry="2.5" style="stroke:#000d19;stroke-width:.5"/><circle cx="84.75" cy="619.434" r="11" fill="#ADD1B2" style="stroke:#181818;stroke-width:1"/><path d="M87.719 625.075q-.578.297-1.219.438-.64.156-1.344.156-2.5 0-3.828-1.64-1.312-1.657-1.312-4.782t1.312-4.781q1.328-1.657 3.828-1.657.703 0 1.344.157.656.156 1.219.453v2.719q-.625-.579-1.219-.844-.594-.281-1.219-.281-1.344 0-2.031 1.078-.687 1.062-.687 3.156t.687 3.172q.688 1.062 2.031 1.062.625 0 1.219-.265.594-.282 1.219-.86z"/><text x="110.25" y="625.32" fill="#D9B8FF" font-family="Helvetica" font-size="17" textLength="53">region</text><path d="M24 639.329h193" style="stroke:#000d19;stroke-width:.5"/><text x="34" y="661.324" fill="#D9B8FF" font-family="sans-serif" font-size="14" font-weight="bold" textLength="59">latitude</text><text x="93" y="661.324" fill="#D9B8FF" font-family="sans-serif" font-size="14" textLength="57">: double</text><text x="34" y="687.621" fill="#D9B8FF" font-family="sans-serif" font-size="14" font-weight="bold" textLength="84">long_name</text><text x="118" y="687.621" fill="#D9B8FF" font-family="sans-serif" font-size="14" textLength="48">: string</text><text x="34" y="713.918" fill="#D9B8FF" font-family="sans-serif" font-size="14" font-weight="bold" textLength="74">longitude</text><text x="108" y="713.918" fill="#D9B8FF" font-family="sans-serif" font-size="14" textLength="57">: double</text><text x="34" y="740.215" fill="#D9B8FF" font-family="sans-serif" font-size="14" font-weight="bold" textLength="108">region_in_use</text><text x="142" y="740.215" fill="#D9B8FF" font-family="sans-serif" font-size="14" textLength="65">: boolean</text><rect width="227" height="310.758" x="7" y="7" fill="#3D176E" rx="2.5" ry="2.5" style="stroke:#000d19;stroke-width:.5"/><circle cx="75.75" cy="26.895" r="11" fill="#ADD1B2" style="stroke:#181818;stroke-width:1"/><path d="M78.719 32.535q-.578.297-1.219.438-.64.156-1.344.156-2.5 0-3.828-1.64-1.312-1.657-1.312-4.782t1.312-4.781q1.328-1.656 3.828-1.656.703 0 1.344.156.656.156 1.219.453v2.719q-.625-.578-1.219-.844-.594-.281-1.219-.281-1.344 0-2.031 1.078-.687 1.062-.687 3.156t.687 3.172q.688 1.062 2.031 1.062.625 0 1.219-.265.594-.281 1.219-.86z"/><text x="101.25" y="32.78" fill="#D9B8FF" font-family="Helvetica" font-size="17" textLength="71">resource</text><path d="M8 46.789h225" style="stroke:#000d19;stroke-width:.5"/><text x="18" y="68.784" fill="#D9B8FF" font-family="sans-serif" font-size="14" font-weight="bold" textLength="29">age</text><text x="47" y="68.784" fill="#D9B8FF" font-family="sans-serif" font-size="14" textLength="66">: duration</text><text x="18" y="95.081" fill="#D9B8FF" font-family="sans-serif" font-size="14" font-weight="bold" textLength="43">atime</text><text x="61" y="95.081" fill="#D9B8FF" font-family="sans-serif" font-size="14" textLength="70">: datetime</text><text x="18" y="121.378" fill="#D9B8FF" font-family="sans-serif" font-size="14" font-weight="bold" textLength="43">ctime</text><text x="61" y="121.378" fill="#D9B8FF" font-family="sans-serif" font-size="14" textLength="70">: datetime</text><text x="18" y="147.675" fill="#D9B8FF" font-family="sans-serif" font-size="14" font-weight="bold" textLength="14">id</text><text x="32" y="147.675" fill="#D9B8FF" font-family="sans-serif" font-size="14" textLength="48">: string</text><text x="18" y="173.972" fill="#D9B8FF" font-family="sans-serif" font-size="14" font-weight="bold" textLength="33">kind</text><text x="51" y="173.972" fill="#D9B8FF" font-family="sans-serif" font-size="14" textLength="48">: string</text><text x="18" y="200.269" fill="#D9B8FF" font-family="sans-serif" font-size="14" font-weight="bold" textLength="90">last_access</text><text x="108" y="200.269" fill="#D9B8FF" font-family="sans-serif" font-size="14" textLength="66">: duration</text><text x="18" y="226.565" fill="#D9B8FF" font-family="sans-serif" font-size="14" font-weight="bold" textLength="90">last_update</text><text x="108" y="226.565" fill="#D9B8FF" font-family="sans-serif" font-size="14" textLength="66">: duration</text><text x="18" y="252.862" fill="#D9B8FF" font-family="sans-serif" font-size="14" font-weight="bold" textLength="48">mtime</text><text x="66" y="252.862" fill="#D9B8FF" font-family="sans-serif" font-size="14" textLength="70">: datetime</text><text x="18" y="279.159" fill="#D9B8FF" font-family="sans-serif" font-size="14" font-weight="bold" textLength="43">name</text><text x="61" y="279.159" fill="#D9B8FF" font-family="sans-serif" font-size="14" textLength="48">: string</text><text x="18" y="305.456" fill="#D9B8FF" font-family="sans-serif" font-size="14" font-weight="bold" textLength="34">tags</text><text x="52" y="305.456" fill="#D9B8FF" font-family="sans-serif" font-size="14" textLength="171">: dictionary[string, string]</text><path fill="none" d="M120.5 770.97v102.05m0-120.05-6 18h12zm0-417.13v102.83m0-120.83-6 18h12zm0 178.92v102.39m0-120.39-6 18h12z" style="stroke:#ffaf37;stroke-width:2"/></svg>
